client/public/assets/icons/custom/custom113.svg

<?xml version="1.0" encoding="UTF-8" standalone="no"?>
<svg width="100px" height="100px" viewBox="0 0 100 100" version="1.1" xmlns="http://www.w3.org/2000/svg" xmlns:xlink="http://www.w3.org/1999/xlink">
    <g stroke="none" stroke-width="1" fill="none" fill-rule="evenodd">
        <path d="M27.1605263,59.0421052 L72.8947368,59.0421052 C73.226271,59.0174948 73.48365,58.7429572 73.4868421,58.4105262 L73.4868421,26.8157894 C73.4868421,26.1447367 72.9736842,25.8289473 72.3026316,25.8289473 L27.7526316,25.8289473 C27.1210526,25.8289473 26.45,26.1447367 26.45,26.8157894 L26.45,58.3947367 C26.45,58.7105262 26.8447368,59.0263157 27.1605263,59.0263157 L27.1605263,59.0421052 Z M31.0526316,31.0947367 C31.0609308,30.771226 31.3212261,30.5109307 31.6447368,30.5026315 L68.3,30.5026315 C68.6235107,30.5109307 68.8838061,30.771226 68.8921053,31.0947367 L68.8921053,53.7921052 C68.8838061,54.1156159 68.6235107,54.3759112 68.3,54.3842104 L31.6210526,54.3842104 C31.2975419,54.3759112 31.0372466,54.1156159 31.0289474,53.7921052 L31.0289474,31.0947367 L31.0526316,31.0947367 Z" id="df8dc2ac-6c0c-44a4-85eb-6f5bc39fff45" fill="#FFFFFF"></path>
        <path d="M79.4631579,73.3394736 L73.6210526,61.4973683 C73.5198991,61.3008242 73.3274661,61.1676013 73.1078947,61.1421052 L26.8842105,61.1421052 C26.6646392,61.1676013 26.4722061,61.3008242 26.3710526,61.4973683 L20.5289474,73.3394736 C20.3212413,73.7202747 20.3248544,74.1813257 20.5385028,74.5588248 C20.7521513,74.936324 21.1455556,75.1767697 21.5789474,75.1947367 L78.4210526,75.1947367 C78.8482307,75.1649579 79.2312341,74.9207854 79.4385164,74.5460829 C79.6457986,74.1713804 79.6491308,73.717177 79.4473684,73.3394736 L79.4631579,73.3394736 Z M55.9842105,72.6052631 L44.0631579,72.6052631 C43.9437246,72.5832595 43.8415565,72.5064467 43.7872454,72.3978245 C43.7329343,72.2892024 43.732785,72.1613803 43.7868421,72.0526315 L45.4842105,68.8157894 C45.585364,68.6192452 45.7777971,68.4860223 45.9973684,68.4605262 L54.0105263,68.4605262 C54.2147361,68.4696657 54.403645,68.5713858 54.5236842,68.736842 L56.2210526,72.0526315 C56.3394737,72.2499999 56.2210526,72.6052631 55.9842105,72.6052631 L55.9842105,72.6052631 Z" id="d1ef59a2-2689-4553-842e-52a954e5b87d" fill="#FFFFFF"></path>
    </g>
</svg>

<?xml version="1.0"?><svg width="100" height="100" viewBox="0 0 100 100" xmlns="http://www.w3.org/2000/svg"><g fill="#fff"><path d="m27.2 59h45.7c0.3 0 0.6-0.3 0.6-0.6v-31.6c0-0.7-0.5-1-1.2-1h-44.5c-0.7 0-1.4 0.3-1.4 1v31.6c0 0.3 0.4 0.6 0.8 0.6v0z m3.9-27.9c0-0.3 0.2-0.6 0.5-0.6h36.7c0.3 0 0.6 0.3 0.6 0.6v22.7c0 0.3-0.3 0.6-0.6 0.6h-36.7c-0.3 0-0.6-0.3-0.6-0.6v-22.7h0.1z"></path><path d="m79.5 73.3l-5.9-11.8c-0.1-0.2-0.3-0.3-0.5-0.4h-46.2c-0.2 0.1-0.4 0.2-0.5 0.4l-5.9 11.8c-0.2 0.4-0.2 0.9 0 1.3 0.3 0.3 0.6 0.6 1.1 0.6h56.8c0.4 0 0.8-0.3 1-0.7 0.2-0.3 0.2-0.8 0-1.2h0.1z m-23.5-0.7h-11.9c-0.2 0-0.3-0.1-0.3-0.2-0.1-0.1-0.1-0.2 0-0.3l1.7-3.3c0.1-0.2 0.3-0.3 0.5-0.3h8c0.2 0 0.4 0.1 0.5 0.2l1.7 3.4c0.1 0.2 0 0.5-0.2 0.5z"></path></g></svg>
